src/assets/updog-star.svg

<svg fill="none" height="841" viewBox="0 0 864 841" width="864" xmlns="http://www.w3.org/2000/svg" xmlns:xlink="http://www.w3.org/1999/xlink"><filter id="a" color-interpolation-filters="sRGB" filterUnits="userSpaceOnUse" height="68" width="166" x="454" y="369"><feFlood flood-opacity="0" result="BackgroundImageFix"/><feBlend in="SourceGraphic" in2="BackgroundImageFix" mode="normal" result="shape"/><feGaussianBlur result="effect1_foregroundBlur_918_1688" stdDeviation="2"/></filter><radialGradient id="b" cx="0" cy="0" gradientTransform="matrix(110.35348507 222.94426087 -232.60908337 115.13740209 356.647 460.056)" gradientUnits="userSpaceOnUse" r="1"><stop offset=".114583" stop-color="#ffe662" stop-opacity="0"/><stop offset="1" stop-color="#f7d835"/></radialGradient><ellipse cx="440.696" cy="702.277" fill="#c4c4c4" fill-opacity=".5" rx="339.956" ry="73.2767"/><path d="m213.918 582.481-19.781-57.065s-34.358-41.724-34.358-150.377l-3.106-27.865s-74.4379-260.0304 124.054-281.61c130.457-14.1683 215.467 33.4432 258.434 67.751 23.215 18.542 28.337 44.076 34.277 72.517 5.177 24.748-19.563 72.203-9.182 97.947 44.684 110.726 52.095 117.902 64.138 132.385 6.866 8.275 31.17 26.581 46.81 54.263 31.361 55.494 24.059 140.216 24.059 140.216l-313.664 54.001s-98.524 13.566-136.315-13.854l-2.861-30.484" fill="#e4b652"/><path d="m688.179 596.176s15.509-14.747 26.533-41.057c11.023-26.31 31.238-10.203 34 2.965 2.708 12.924 15.209 45.302-57.88 80.373l-10.832-23.045z" fill="#e4b652"/><path d="m276.983 61s-84.614 13.5884-115.805 15.0891-50.063-4.2839-57.656 44.6939c-7.5931 48.978 12.318 88.188 22.314 92.281 10.379 4.257 25.209 6.221 37.773-25.403s26.193-71.025 55.663-89.7978c24.909-15.8531 47.824-24.9939 54.352-27.4496 1.529-.573 2.949-1.337 4.26-2.2647 3.551-2.5103 8.74-7.1489-.901-7.1489z" fill="#544b43"/><path d="m465.917 97.3601s-6.159-17.2928 25.153-.6536c31.311 16.6395 56.902 29.0845 86.544 36.9005s45.982 12.282 48.774 38.834c2.819 26.552-22.471 66.856-45.27 90.004-12.536 12.745-20.692 8.85-25.482 2.777-3.722-4.711-5.419-10.729-5.31-16.72.192-9.886-1.122-32.271-13.986-56.127-9.634-17.837-42.971-77.205-70.423-95.0149z" fill="#544b43"/><path d="m230.791 225.091s50.643-33.817 108.3-24.54 79.866 62.111 79.866 62.111" stroke="#544b43" stroke-linecap="round" stroke-linejoin="round" stroke-miterlimit="10" stroke-width="5"/><path d="m330.743 221.904s-35.591-11.066-37.719 19.205c-.245 3.599 1.364 7.252 4.555 8.998 3.873 2.095 10.8 2.954 23.073-2.069 0 0 4.554-2.685 8.345 1.827 3.818 4.512 7.282 11.576 18.955 10.421 4.8-.483 8.018-3.142 10.145-6.124 4.336-6.07 4.2-14.423-.682-20.064-4.091-4.754-11.891-9.777-26.672-12.194z" fill="#544b43"/><path d="m156.571 358.015s175.138 61.363 406.883-50.372l19.678 41.547s-229.892 113.544-425.988 43.686z" fill="#16d2aa"/><path d="m329.779 498.863c20.883 0 37.812-18.044 37.812-40.303 0-22.258-16.929-40.303-37.812-40.303-20.882 0-37.811 18.045-37.811 40.303 0 22.259 16.929 40.303 37.811 40.303z" fill="#fff"/><path d="m329.773 417.365c-23.309 0-42.228 18.884-42.228 42.21 0 23.299 18.892 42.211 42.228 42.211 23.309 0 42.228-18.885 42.228-42.211s-18.919-42.21-42.228-42.21zm0 78.562c-20.092 0-36.394-16.296-36.394-36.379s16.275-36.379 36.394-36.379c20.092 0 36.394 16.268 36.394 36.379s-16.302 36.379-36.394 36.379z" fill="#16d2aa"/><path d="m329.784 495.951c20.1 0 36.394-16.287 36.394-36.379 0-20.091-16.294-36.379-36.394-36.379s-36.394 16.288-36.394 36.379c0 20.092 16.294 36.379 36.394 36.379z" fill="#fff"/><path d="m311.54 468.34c1.172 1.444 2.726 2.18 4.689 2.18s3.517-.736 4.662-2.18c1.145-1.445 1.717-3.434 1.717-5.914v-13.08l6.979-4.196v17.494c0 4.524-1.254 8.012-3.762 10.437s-5.698 3.652-9.623 3.652c-3.899 0-7.116-1.227-9.651-3.679-2.508-2.453-3.789-5.913-3.789-10.41v-13.298l6.979-4.196v17.249c.054 2.534.627 4.496 1.799 5.941z" fill="#16d2aa"/><path d="m353.455 447.957c2.18 1.853 3.298 4.714 3.298 8.583 0 3.87-1.118 6.677-3.38 8.475-2.263 1.799-5.698 2.671-10.305 2.671h-4.171v4.523l-6.979 4.197v-31.256h11.041c4.798.027 8.287.954 10.496 2.807zm-5.126 12.289c.846-.926 1.254-2.316 1.254-4.114 0-1.799-.545-3.08-1.635-3.843-1.091-.763-2.781-1.144-5.071-1.144h-3.98v10.518h4.689c2.317 0 3.898-.463 4.743-1.417z" fill="#16d2aa"/><path d="m329.448 411.656s4.286 7.436.19 11.455c-4.123 4.046 2.143 1.34 2.143 1.34s3.825-7.382 0-12.795c0 0-.814-2.953-2.333 0z" fill="#b5dfd5"/><path d="m324.498 415.076 1.499-.235v2.842l-1.499.156z" fill="#b5dfd5"/><path d="m325.246 247.664-4.509 22.426s3.124 11.792 22.164 16.207c1.331.296 2.689.404 4.047.323 4.401-.242 14.043-1.454 18.769-7.026" stroke="#544b43" stroke-linecap="round" stroke-linejoin="round" stroke-miterlimit="10" stroke-width="5"/><path d="m320.748 269.411s-9.031 15.146-23.524 11.399-14.709-11.399-14.709-11.399" stroke="#544b43" stroke-linecap="round" stroke-linejoin="round" stroke-miterlimit="10" stroke-width="5"/><path d="m699.331 623.236s-26.881 91.142-120.121 105.375c-93.268 14.233-117.455 0-117.455 0s-17.086-9.961 13.522-28.494 49.844-27.051 49.844-27.051-130.977 7.838-175.135 6.395" fill="#e4b652"/><path d="m421.197 677.781s-79.382 11.399-172.049 29.301c-47.667 9.196-70.643 8.298-81.206 6.312-7.132-1.36-13.067-6.856-14.183-14.011-1.034-6.748 1.742-15.807 17.042-25.058 30.626-18.5 32.177-14.201 32.177-14.201-37.595-40.565 11.216-87.115 11.216-87.115s53.248 80.993 130.126 92.91" fill="#e4b652"/><path d="m212.786 573.009c22.156 45.593 97.584 76.522 146.185 95.957z" fill="#e4b652"/><path d="m212.786 573.009c22.156 45.593 97.584 76.522 146.185 95.957" stroke="#c58f2c" stroke-miterlimit="10" stroke-width="1.302"/><path d="m525.077 673.008c-11.859-6.24-22.082-16.132-27.998-28.503-2.917-6.186-4.444-13.053-4.607-19.893-.164-6.867 1.036-13.707 3.135-20.219 2.181-6.513 5.398-12.508 8.86-18.367 3.707-5.668 7.606-11.227 12.159-16.241 8.887-10.192 18.892-19.239 29.496-27.468l-7.333 6.867c-2.481 2.234-4.743 4.741-7.142 7.085-2.427 2.316-4.635 4.823-6.898 7.276-2.317 2.398-4.389 5.014-6.515 7.603-4.226 5.15-8.097 10.573-11.641 16.186-3.298 5.75-6.379 11.636-8.396 17.903-2.072 6.241-3.326 12.753-3.217 19.293.054 6.54 1.527 13.026 4.035 19.103 2.589 6.049 6.352 11.581 10.822 16.513 4.39 4.933 9.542 9.293 15.24 12.862z" fill="#c48f2c"/><g fill="#c58f2c"><path d="m183.933 689.963c5.589 0 10.121-2.349 10.121-5.248 0-2.898-4.532-5.247-10.121-5.247s-10.121 2.349-10.121 5.247c0 2.899 4.532 5.248 10.121 5.248z"/><path d="m173.437 701.954c4.347 0 7.871-1.846 7.871-4.123s-3.524-4.123-7.871-4.123-7.872 1.846-7.872 4.123 3.525 4.123 7.872 4.123z"/><path d="m183.181 710.952c4.761 0 8.621-1.342 8.621-2.998s-3.86-2.999-8.621-2.999c-4.762 0-8.621 1.343-8.621 2.999s3.859 2.998 8.621 2.998z"/><path d="m204.547 707.195c9.936 0 17.992-4.196 17.992-9.371s-8.056-9.371-17.992-9.371c-9.937 0-17.992 4.196-17.992 9.371s8.055 9.371 17.992 9.371z"/></g><path d="m247.663 653.385s-46.372 3.788-48.744 6.84z" fill="#e4b652"/><path d="m247.663 653.384c-4.062.763-8.152 1.335-12.214 1.88-4.062.572-8.151 1.035-12.24 1.526l-12.24 1.335c-2.045.191-4.09.436-6.107.736s-4.144.409-5.943 1.362c.736-.763 1.799-1.062 2.753-1.444.982-.327 1.99-.627 2.999-.899 2.017-.491 4.035-.899 6.079-1.308 4.062-.79 8.152-1.308 12.241-1.799 4.089-.436 8.206-.844 12.322-1.062 4.117-.218 8.233-.382 12.35-.327z" fill="#c58f2c"/><g filter="url(#a)" opacity=".1"><path d="m458 402.981c31.43-17.971 107.032-37.126 158 30.019-18.688-37.575-76.452-96.185-158-30.019z" fill="#fff"/></g><path d="m253.932 180.152s4.991-11.199 16.514-9.605c11.543 1.626 12.333 10.524 12.333 10.524" stroke="#1e1c1a" stroke-linecap="round" stroke-linejoin="round" stroke-miterlimit="10" stroke-width="5"/><path d="m404.324 204.998s7.203-9.854 18.077-5.647c10.899 4.211 9.781 13.078 9.781 13.078" stroke="#1e1c1a" stroke-linecap="round" stroke-linejoin="round" stroke-miterlimit="10" stroke-width="5"/><path d="m404.183 261.244c6.74-7.057 18.636-3.547 20.466 6.038l22.701 118.934c.732 3.833 3.281 7.071 6.836 8.681l113.199 51.272c9.198 4.166 9.452 17.136.425 21.659l-108.158 54.196c-3.639 1.824-6.105 5.368-6.551 9.413l-13.041 118.254c-1.085 9.831-12.928 14.203-20.14 7.435l-90.68-85.1c-2.773-2.602-6.616-3.736-10.358-3.056l-122.352 22.245c-9.731 1.769-17.304-8.332-12.878-17.177l53.241-106.393c1.822-3.64 1.674-7.955-.392-11.462l-61.415-104.228c-5.126-8.699 2.129-19.454 12.114-17.96l122.901 18.39c3.86.577 7.759-.758 10.454-3.58z" fill="#ffe662"/><path d="m404.183 261.244c6.74-7.057 18.636-3.547 20.466 6.038l22.701 118.934c.732 3.833 3.281 7.071 6.836 8.681l113.199 51.272c9.198 4.166 9.452 17.136.425 21.659l-108.158 54.196c-3.639 1.824-6.105 5.368-6.551 9.413l-13.041 118.254c-1.085 9.831-12.928 14.203-20.14 7.435l-90.68-85.1c-2.773-2.602-6.616-3.736-10.358-3.056l-122.352 22.245c-9.731 1.769-17.304-8.332-12.878-17.177l53.241-106.393c1.822-3.64 1.674-7.955-.392-11.462l-61.415-104.228c-5.126-8.699 2.129-19.454 12.114-17.96l122.901 18.39c3.86.577 7.759-.758 10.454-3.58z" fill="url(#b)"/><path d="m261.444 414.647c-43.409-10.981-79.221-60.449-104.344-61.768-12.772-.67-35.042 63.998-2.003 92.428 47.657 41.008 103.685 38.17 116.097 20.46s13.025-45.358-9.75-51.12z" fill="#e4b652"/><path d="m445.169 398.87c50.651.166 104.091-41.693 133.7-35.463 22.943-5.767 47.058 67.124-31.475 97.755-60.217 23.487-117.17 3.436-126.391-16.839-9.22-20.276-3.02-45.543 24.166-45.453z" fill="#e4b652"/></svg>

<svg width="864" height="841" viewBox="0 0 864 841" fill="none" xmlns="http://www.w3.org/2000/svg">
<ellipse cx="440.696" cy="702.277" rx="339.956" ry="73.2767" fill="#C4C4C4" fill-opacity="0.5"/>
<path d="M213.918 582.481L194.137 525.416C194.137 525.416 159.779 483.692 159.779 375.039L156.673 347.174C156.673 347.174 82.2351 87.1436 280.727 65.564C411.184 51.3957 496.194 99.0072 539.161 133.315C562.376 151.857 567.498 177.391 573.438 205.832C578.615 230.58 553.875 278.035 564.256 303.779C608.94 414.505 616.351 421.681 628.394 436.164C635.26 444.439 659.564 462.745 675.204 490.427C706.565 545.921 699.263 630.643 699.263 630.643L385.599 684.644C385.599 684.644 287.075 698.21 249.284 670.79L246.423 640.306" fill="#E4B652"/>
<path d="M688.179 596.176C688.179 596.176 703.688 581.429 714.712 555.119C725.735 528.809 745.95 544.916 748.712 558.084C751.42 571.008 763.921 603.386 690.832 638.457L680 615.412L688.179 596.176Z" fill="#E4B652"/>
<path d="M276.983 61C276.983 61 192.369 74.5884 161.178 76.0891C129.987 77.5898 111.115 71.8052 103.522 120.783C95.9289 169.761 115.84 208.971 125.836 213.064C136.215 217.321 151.045 219.285 163.609 187.661C176.173 156.037 189.802 116.636 219.272 97.8632C244.181 82.0101 267.096 72.8693 273.624 70.4136C275.153 69.8406 276.573 69.0766 277.884 68.1489C281.435 65.6386 286.624 61 276.983 61Z" fill="#544B43"/>
<path d="M465.917 97.3601C465.917 97.3601 459.758 80.0673 491.07 96.7065C522.381 113.346 547.972 125.791 577.614 133.607C607.256 141.423 623.596 145.889 626.388 172.441C629.207 198.993 603.917 239.297 581.118 262.445C568.582 275.19 560.426 271.295 555.636 265.222C551.914 260.511 550.217 254.493 550.326 248.502C550.518 238.616 549.204 216.231 536.34 192.375C526.706 174.538 493.369 115.17 465.917 97.3601Z" fill="#544B43"/>
<path d="M230.791 225.091C230.791 225.091 281.434 191.274 339.091 200.551C396.748 209.828 418.957 262.662 418.957 262.662" stroke="#544B43" stroke-width="5" stroke-miterlimit="10" stroke-linecap="round" stroke-linejoin="round"/>
<path d="M330.743 221.904C330.743 221.904 295.152 210.838 293.024 241.109C292.779 244.708 294.388 248.361 297.579 250.107C301.452 252.202 308.379 253.061 320.652 248.038C320.652 248.038 325.206 245.353 328.997 249.865C332.815 254.377 336.279 261.441 347.952 260.286C352.752 259.803 355.97 257.144 358.097 254.162C362.433 248.092 362.297 239.739 357.415 234.098C353.324 229.344 345.524 224.321 330.743 221.904Z" fill="#544B43"/>
<path d="M156.571 358.015C156.571 358.015 331.709 419.378 563.454 307.643L583.132 349.19C583.132 349.19 353.24 462.734 157.144 392.876L156.571 358.015Z" fill="#16D2AA"/>
<path d="M329.779 498.863C350.662 498.863 367.591 480.819 367.591 458.56C367.591 436.302 350.662 418.257 329.779 418.257C308.897 418.257 291.968 436.302 291.968 458.56C291.968 480.819 308.897 498.863 329.779 498.863Z" fill="white"/>
<path d="M329.773 417.365C306.464 417.365 287.545 436.249 287.545 459.575C287.545 482.874 306.437 501.786 329.773 501.786C353.082 501.786 372.001 482.901 372.001 459.575C372.001 436.249 353.082 417.365 329.773 417.365ZM329.773 495.927C309.681 495.927 293.379 479.631 293.379 459.548C293.379 439.465 309.654 423.169 329.773 423.169C349.865 423.169 366.167 439.437 366.167 459.548C366.167 479.659 349.865 495.927 329.773 495.927Z" fill="#16D2AA"/>
<path d="M329.784 495.951C349.884 495.951 366.178 479.664 366.178 459.572C366.178 439.481 349.884 423.193 329.784 423.193C309.684 423.193 293.39 439.481 293.39 459.572C293.39 479.664 309.684 495.951 329.784 495.951Z" fill="white"/>
<path d="M311.54 468.34C312.712 469.784 314.266 470.52 316.229 470.52C318.192 470.52 319.746 469.784 320.891 468.34C322.036 466.895 322.608 464.906 322.608 462.426V449.346L329.587 445.15V462.644C329.587 467.168 328.333 470.656 325.825 473.081C323.317 475.506 320.127 476.733 316.202 476.733C312.303 476.733 309.086 475.506 306.551 473.054C304.043 470.601 302.762 467.141 302.762 462.644V449.346L309.741 445.15V462.399C309.795 464.933 310.368 466.895 311.54 468.34Z" fill="#16D2AA"/>
<path d="M353.455 447.957C355.635 449.81 356.753 452.671 356.753 456.54C356.753 460.41 355.635 463.217 353.373 465.015C351.11 466.814 347.675 467.686 343.068 467.686H338.897V472.209L331.918 476.406V445.15H342.959C347.757 445.177 351.246 446.104 353.455 447.957ZM348.329 460.246C349.175 459.32 349.583 457.93 349.583 456.132C349.583 454.333 349.038 453.052 347.948 452.289C346.857 451.526 345.167 451.145 342.877 451.145H338.897V461.663H343.586C345.903 461.663 347.484 461.2 348.329 460.246Z" fill="#16D2AA"/>
<path d="M329.448 411.656C329.448 411.656 333.734 419.092 329.638 423.111C325.515 427.157 331.781 424.451 331.781 424.451C331.781 424.451 335.606 417.069 331.781 411.656C331.781 411.656 330.967 408.703 329.448 411.656Z" fill="#B5DFD5"/>
<path d="M324.498 415.076L325.997 414.841V417.683L324.498 417.839V415.076Z" fill="#B5DFD5"/>
<path d="M325.246 247.664L320.737 270.09C320.737 270.09 323.861 281.882 342.901 286.297C344.232 286.593 345.59 286.701 346.948 286.62C351.349 286.378 360.991 285.166 365.717 279.594" stroke="#544B43" stroke-width="5" stroke-miterlimit="10" stroke-linecap="round" stroke-linejoin="round"/>
<path d="M320.748 269.411C320.748 269.411 311.717 284.557 297.224 280.81C282.731 277.063 282.515 269.411 282.515 269.411" stroke="#544B43" stroke-width="5" stroke-miterlimit="10" stroke-linecap="round" stroke-linejoin="round"/>
<path d="M699.331 623.236C699.331 623.236 672.45 714.378 579.21 728.611C485.942 742.844 461.755 728.611 461.755 728.611C461.755 728.611 444.669 718.65 475.277 700.117C505.885 681.584 525.121 673.066 525.121 673.066C525.121 673.066 394.144 680.904 349.986 679.461" fill="#E4B652"/>
<path d="M421.197 677.781C421.197 677.781 341.815 689.18 249.148 707.082C201.481 716.278 178.505 715.38 167.942 713.394C160.81 712.034 154.875 706.538 153.759 699.383C152.725 692.635 155.501 683.576 170.801 674.325C201.427 655.825 202.978 660.124 202.978 660.124C165.383 619.559 214.194 573.009 214.194 573.009C214.194 573.009 267.442 654.002 344.32 665.919" fill="#E4B652"/>
<path d="M212.786 573.009C234.942 618.602 310.37 649.531 358.971 668.966L212.786 573.009Z" fill="#E4B652"/>
<path d="M212.786 573.009C234.942 618.602 310.37 649.531 358.971 668.966" stroke="#C58F2C" stroke-width="1.302" stroke-miterlimit="10"/>
<path d="M525.077 673.008C513.218 666.768 502.995 656.876 497.079 644.505C494.162 638.319 492.635 631.452 492.472 624.612C492.308 617.745 493.508 610.905 495.607 604.393C497.788 597.88 501.005 591.885 504.467 586.026C508.174 580.358 512.073 574.799 516.626 569.785C525.513 559.593 535.518 550.546 546.122 542.317L538.789 549.184C536.308 551.418 534.046 553.925 531.647 556.269C529.22 558.585 527.012 561.092 524.749 563.545C522.432 565.943 520.36 568.559 518.234 571.148C514.008 576.298 510.137 581.721 506.593 587.334C503.295 593.084 500.214 598.97 498.197 605.237C496.125 611.478 494.871 617.99 494.98 624.53C495.034 631.07 496.507 637.556 499.015 643.633C501.604 649.682 505.367 655.214 509.837 660.146C514.227 665.079 519.379 669.439 525.077 673.008Z" fill="#C48F2C"/>
<path d="M183.933 689.963C189.522 689.963 194.054 687.614 194.054 684.715C194.054 681.817 189.522 679.468 183.933 679.468C178.344 679.468 173.812 681.817 173.812 684.715C173.812 687.614 178.344 689.963 183.933 689.963Z" fill="#C58F2C"/>
<path d="M173.437 701.954C177.784 701.954 181.308 700.108 181.308 697.831C181.308 695.554 177.784 693.708 173.437 693.708C169.09 693.708 165.565 695.554 165.565 697.831C165.565 700.108 169.09 701.954 173.437 701.954Z" fill="#C58F2C"/>
<path d="M183.181 710.952C187.942 710.952 191.802 709.61 191.802 707.954C191.802 706.298 187.942 704.955 183.181 704.955C178.419 704.955 174.56 706.298 174.56 707.954C174.56 709.61 178.419 710.952 183.181 710.952Z" fill="#C58F2C"/>
<path d="M204.547 707.195C214.483 707.195 222.539 702.999 222.539 697.824C222.539 692.649 214.483 688.453 204.547 688.453C194.61 688.453 186.555 692.649 186.555 697.824C186.555 702.999 194.61 707.195 204.547 707.195Z" fill="#C58F2C"/>
<path d="M247.663 653.385C247.663 653.385 201.291 657.173 198.919 660.225L247.663 653.385Z" fill="#E4B652"/>
<path d="M247.663 653.384C243.601 654.147 239.511 654.719 235.449 655.264C231.387 655.836 227.298 656.299 223.209 656.79L210.969 658.125C208.924 658.316 206.879 658.561 204.862 658.861C202.845 659.161 200.718 659.27 198.919 660.223C199.655 659.46 200.718 659.161 201.672 658.779C202.654 658.452 203.662 658.152 204.671 657.88C206.688 657.389 208.706 656.981 210.75 656.572C214.812 655.782 218.902 655.264 222.991 654.773C227.08 654.337 231.197 653.929 235.313 653.711C239.43 653.493 243.546 653.329 247.663 653.384Z" fill="#C58F2C"/>
<g opacity="0.1" filter="url(#filter0_f_918_1688)">
<path d="M458 402.981C489.43 385.01 565.032 365.855 616 433C597.312 395.425 539.548 336.815 458 402.981Z" fill="white"/>
</g>
<path d="M253.932 180.152C253.932 180.152 258.923 168.953 270.446 170.547C281.989 172.173 282.779 181.071 282.779 181.071" stroke="#1E1C1A" stroke-width="5" stroke-miterlimit="10" stroke-linecap="round" stroke-linejoin="round"/>
<path d="M404.324 204.998C404.324 204.998 411.527 195.144 422.401 199.351C433.3 203.562 432.182 212.429 432.182 212.429" stroke="#1E1C1A" stroke-width="5" stroke-miterlimit="10" stroke-linecap="round" stroke-linejoin="round"/>
<path d="M404.183 261.244C410.923 254.187 422.819 257.697 424.649 267.282L447.35 386.216C448.082 390.049 450.631 393.287 454.186 394.897L567.385 446.169C576.583 450.335 576.837 463.305 567.81 467.828L459.652 522.024C456.013 523.848 453.547 527.392 453.101 531.437L440.06 649.691C438.975 659.522 427.132 663.894 419.92 657.126L329.24 572.026C326.467 569.424 322.624 568.29 318.882 568.97L196.53 591.215C186.799 592.984 179.226 582.883 183.652 574.038L236.893 467.645C238.715 464.005 238.567 459.69 236.501 456.183L175.086 351.955C169.96 343.256 177.215 332.501 187.2 333.995L310.101 352.385C313.961 352.962 317.86 351.627 320.555 348.805L404.183 261.244Z" fill="#FFE662"/>
<path d="M404.183 261.244C410.923 254.187 422.819 257.697 424.649 267.282L447.35 386.216C448.082 390.049 450.631 393.287 454.186 394.897L567.385 446.169C576.583 450.335 576.837 463.305 567.81 467.828L459.652 522.024C456.013 523.848 453.547 527.392 453.101 531.437L440.06 649.691C438.975 659.522 427.132 663.894 419.92 657.126L329.24 572.026C326.467 569.424 322.624 568.29 318.882 568.97L196.53 591.215C186.799 592.984 179.226 582.883 183.652 574.038L236.893 467.645C238.715 464.005 238.567 459.69 236.501 456.183L175.086 351.955C169.96 343.256 177.215 332.501 187.2 333.995L310.101 352.385C313.961 352.962 317.86 351.627 320.555 348.805L404.183 261.244Z" fill="url(#paint0_diamond_918_1688)"/>
<path d="M261.444 414.647C218.035 403.666 182.223 354.198 157.1 352.879C144.328 352.209 122.058 416.877 155.097 445.307C202.754 486.315 258.782 483.477 271.194 465.767C283.606 448.057 284.219 420.409 261.444 414.647Z" fill="#E4B652"/>
<path d="M445.169 398.87C495.82 399.036 549.26 357.177 578.869 363.407C601.812 357.64 625.927 430.531 547.394 461.162C487.177 484.649 430.224 464.598 421.003 444.323C411.783 424.047 417.983 398.78 445.169 398.87Z" fill="#E4B652"/>
<defs>
<filter id="filter0_f_918_1688" x="454" y="369" width="166" height="68" filterUnits="userSpaceOnUse" color-interpolation-filters="sRGB">
<feFlood flood-opacity="0" result="BackgroundImageFix"/>
<feBlend mode="normal" in="SourceGraphic" in2="BackgroundImageFix" result="shape"/>
<feGaussianBlur stdDeviation="2" result="effect1_foregroundBlur_918_1688"/>
</filter>
<radialGradient id="paint0_diamond_918_1688" cx="0" cy="0" r="1" gradientUnits="userSpaceOnUse" gradientTransform="translate(356.647 460.056) rotate(63.6654) scale(248.761 259.545)">
<stop offset="0.114583" stop-color="#FFE662" stop-opacity="0"/>
<stop offset="1" stop-color="#F7D835"/>
</radialGradient>
</defs>
</svg>
